X:1
T:Lift Up Thy Voice
T:Lift Up Thy Voice
T:Philip Paul Bliss
T:Mary Artemisia Lathbury, 1876
T:Public Domain Courtesy of the Cyber Hymnal™
T:Public Domain Courtesy of the Cyber Hymnal™
C:Philip Paul Bliss
Z:Public Domain
Z:Courtesy of the Cyber Hymnal™
%%score ( 1 2 ) ( 3 4 )
L:1/8
Q:1/4=100
M:4/4
K:Db
V:1 treble 
V:2 treble 
V:3 bass 
V:4 bass 
V:1
 [FA] | [FA]3 [FA] [Fd]3 [FA] | ([FA][=E=G][FA])[_GB] [FA] [DF]2 [DF] | [DB]3 [GB] [FA]3 [Fd] | %4
w: 1.~Lift|up, lift up thy|voice * * with sing- ing, Dear|land, with strength lift|
w: 2.~And|shall His flock with|strife * * be riv- en? Shall|en- vious lines His|
w: 3.~Lift|up thy gates! Bring|forth * * o- bla- tions! One|crowned with crowns a|
w: 4.~He|comes! Let all the|earth * * a- dore Him; The|path His hu- man|
 (dcB)[Gc] [Fd]3 [FA] | [FA]3 [FA] [Fd]3 [FA] | ([FA][=E=G][FA])[_GB] [FA] [DF]2 [DF] | %7
w: up * * thy voice! The|king- doms of the|earth * * are bring- ing Their|
w: church * * di- vide, When|He, the Lord of|earth * * and Hea- ven, Stands|
w: mess- * * age brings: His|Word, a sword to|smite * * the na- tions; His|
w: na- * * ture trod Spreads|to a roy- al|realm * * be- fore Him, The|
 [CE]3 [CA] [Ec]3 [Ae] | [=Ge]3 [EG] [EA]3 ||"^Refrain" [FA] | [FA]3 [FA] [Af]3 [Ge] | %11
w: trea- sures to thy|gates— Re- joice!|||
w: at the door to|claim His bride?|||
w: name— The Christ, the|King of kings.|A-|rise and shine in|
w: Life of life, The|Word of God!|||
 ([Fd][Ec][Fd])[GB] [FA] [DF]2 [DF] | [FB]3 [Fc] [Fd]3 [Fc] | [Bd]2 [Be]2 [=Af]3 [F_A] | %14
w: |||
w: |||
w: youth * * im- mor- tal, Thy|Light is come, thy|King ap- pears! Be-|
w: |||
 [FA]3 [FA] [Af]3 [Ge] | ([Fd][Ec][Fd])[GB] [FA] [DF]3 | [GB]>[GB] [GB]2 [Bd]3 [Be] | %17
w: |||
w: |||
w: yond the cen- tury’s|swing- * * ing por- tal,|Breaks a new dawn— the|
w: |||
 [Af]2 [Ge]2 [Fd]3 |] %18
w: |
w: |
w: thou- sand years.|
w: |
V:2
 x | x8 | x8 | x8 | G3 x5 | x8 | x8 | x8 | x7 || x | x8 | x8 | x8 | x8 | x8 | x8 | x8 | x7 |] %18
V:3
 [D,D] | [D,D]3 [D,D] [D,A,]3 [D,D] | [D,D]3 [D,D] [D,D] [D,A,]2 [D,A,] | G,3 [G,B,] [D,D]3 [D,D] | %4
 [A,E]3 [A,E] [D,D]3 [D,D] | [D,D]3 [D,D] [D,A,]3 [D,D] | [D,D]3 [D,D] [D,D] [D,A,]2 [D,A,] | %7
 [E,A,]3 [E,A,] [E,A,]3 [E,C] | [E,B,]3 [E,D] [A,,C]3 || [D,D] | [D,D]3 [D,D] [D,D]3 [D,A,] | %11
 [D,A,]3 [D,B,] [D,D] [D,A,]2 [D,D] | [B,D]3 [B,E] [B,F]3 [B,E] | [B,D]2 [G,B,]2 [F,C]3 [D,D] | %14
 [D,D]3 [D,D] [D,D]3 [D,A,] | [D,A,]3 [D,B,] [D,D] [D,D]3 | [G,D]>[G,D] [G,D]2 [G,D]3 [G,D] | %17
 [A,D]2 [A,C]2 [D,D]3 |] %18
V:4
 x | x8 | x8 | G,3 x5 | x8 | x8 | x8 | x8 | x7 || x | x8 | x8 | x8 | x8 | x8 | x8 | x8 | x7 |] %18

